X:1
T:Hardiman's Fancy
R:jig
M:6/8
L:1/8
K:D
A|:~B2B BAF|AFE ~F2E|DFA def|afe dBA|
|~B2B BAF|AFE ~F2E|DFA def|1 edB ~B2A:|2 edB Bcd|]
|:~e2e edB|AFA ~d2A|def ~a2a|baf ~a2a|
|baf ~a2a|baf edB|def afe|1 dBA Bgf:|2 dBA ~B2A|]